teeny/solid/sim.svg

<svg width="15" height="15" viewBox="0 0 15 15" fill="none" xmlns="http://www.w3.org/2000/svg">
<path fill-rule="evenodd" clip-rule="evenodd" d="M9.70711 0H2.5C1.67157 0 1 0.671574 1 1.5V13.5C1 14.3284 1.67157 15 2.5 15H12.5C13.3284 15 14 14.3284 14 13.5V4.29289L9.70711 0ZM7 6H4V5H8V12H7V6ZM6 9H4V8H6V9ZM4 12H6V11H4V12ZM11 6H9V5H11V6ZM9 9H11V8H9V9ZM11 12H9V11H11V12Z" fill="black"/>
</svg>

<svg viewBox="0 0 15 15" xmlns="http://www.w3.org/2000/svg"><path fill-rule="evenodd" d="M9.7 0H2.49C1.66 0 .99.67.99 1.5v12c0 .82.67 1.5 1.5 1.5h10c.82 0 1.5-.68 1.5-1.5V4.29l-4.3-4.3ZM6.99 6h-3V5h4v7h-1V6Zm-1 3h-2V8h2v1Zm-2 3h2v-1h-2v1Zm7-6h-2V5h2v1Zm-2 3h2V8h-2v1Zm2 3h-2v-1h2v1Z"/></svg>
